X: 3911
T: Blackberry Bush, The
R: reel
M: 4/4
K: Dmajor
|:de|f2fe dBBA|BddA BAAB|f2fe dBBA|Beef e2de|
f2fe dBBA|BddA BAAB|d2ef edBA|Bdde d2:|
|:de|faaf e2de|fded BAAB|d2ef edBA|Beef e2de|
faaf e2de|fded BAAB|d2ef edBA|Bdde d2:|
|:dB|AAAB ABde|fded BAAB|AAAB ABdA|Beef fedB|
AAAB ABde|fded BAAB|d2ef edBA|Bdde d2:|
de|f2fe faaf|e2fd BAAB|fefa afed|Beef fede|
f2fe faaf|e2fd BAAB|d2ef edBA|Bdde d2de|
f2fe faaf|e2fd BAAB|fefa afed|Beef fede|
f2fa e2ef|d2dA BAAB|d2ef edBA|Bdde d2||

